X:1
T:[ID 4-11v]
T:[ID 4-11v]
T:Bezeichnung standardisiert: Menuet [mit Trio] Menuet Con Trio 4. In dieser Quelle auch als: Menuetto
T:Urheber unbekannt Datum in der hier transkribierten schriftlichen Quelle: 1767
C:Urheber unbekannt
C:Datum in der hier transkribierten schriftlichen Quelle: 1767
L:1/8
M:3/4
K:D
V:1 treble 
V:1
 d4 A2 | F>DF>A d2 | B2{a} g2{f} e2 |{d} c4 d2 | (f/g/)a aa (a/g/)f | (e/f/)g gg (g/f/)e | %6
 fa f2 e2 |{f} e6 :: A3 Ac>e | .g2 .e2 .c2 | A3 Ad>f | .a2 .f2 .d2 | (g/a/)b bb (b/a/)g | %13
 (f/g/)a aa (a/g/)f | e2 d2 c2 |{c} d6 :|[M:3/4]"^Trio"!p! !fermata!FG A2 A2 | (3Bcd{B} A4 | %18
 A2 (AG)(GF) | (EF){F} G4 | FG A2 A2 | (3Bcd{B} A4 | G2 G2 F2 |{F} E6 :: CD E2 E2 | (3EFG{G} F4 | %26
 B2 (3BAG (3FED | (3CB,A, A,4 | FG A2 A2 | (3Bcd{B} A4 | G2 F2 E2 |{E} D6"^DaCapo [Menuet]" :| %32

